X:64
T:Fishin' Mudcats Jig
R:jig
C:Bruce Osborne  --  Revised - Apr.2005
Z:abc by bosborne@kos.net
M:6/8
L:1/8
K:G
D|G,B,D EDB,|GFG Bcd|ege dBG|AFD CB,A,|\
G,B,D EDB,|GFG Bcd|ege dBG|cAF G2:|
|:D|GFG BAB|d^cd gdB|cde dBG|cAF DEF|\
GFG BAB|d^cd gdB|cde dBG|cAF G2:|
